X:1
T: Miss Cahoon's Reel
C:
R:Jig
Q:180
K:F
M:6/8
L:1/16
|:A2|F4G2 A4B2|c2f2d2 c2A2F2|B3AB2 c2A2F2|E3FG2 G4A2|
F2A2F2 A2F2A2|c2f2d2 c2A2F2|B3AB2 G2c2B2|A2F2F2 F4c2|
f3ef2 g2e2c2|d2f2d2 c2A2F2|Bcd2B2 ABc2A2|E3FG2 G4c2|
f2a2f2 e2g2e2|d2f2d2 c2A2F2|B3AB2 G2c2B2|A2F2F2 F4:|
C2|F4G2 A4B2|c2f2d2 c2A2F2|B2A2B2 c2A2F2|E2F2G2 G4A2|
F4G2 A4B2|c2f2d2 c2A2F2|B2A2B2 G2c2B2|A2F2F2 F4c2|
f2e2f2 g2e2c2|d2f2d2 c2A2F2|Bcd2B2 ABc2A2|E2F2G2 G4c2|
F2C2F2 A2F2A2|c2f2d2 c2A2F2|B2A2B2 G2c2B2|A2F2F2 F4||
